X: 27
T: I Like Sugar in My Coffee
M:2/4
L:1/8
S:Viola "Mom" Ruth - Pioneer Western Folk Tunes (1948)
Z:AK/Fiddler's Companion
K:G
DG B/c/B/G/|AB c2|DG B/c/B/G/|BA G2|DG B/c/B/G/|AB c2|
DG B/c/B/G/|BA G2||ed B/B/d/d/|ef g2|ed B/B/G/G/|BA A2|
ed B/B/d/d/|ef g2|ed B/B/G/G/|AG G2||DG B/c/B/G/|AB c2|
DG B/c/B/G/|BA G2|DG B/c/B/G/|AB c2|DG B/c/B/G/|BA G2||
ed B/B/d/d/|ef g2|ed B/c/B/G/|BA A2|ed B/c/B/d/|ef g2|ed D/E/G/B/|AG G2||

%%sep 1 1 500
